packages/core/src/svgs/tdrop.svg

<svg width="24" height="24" viewBox="0 0 24 24" fill="none" xmlns="http://www.w3.org/2000/svg">
<g clip-path="url(#clip0_31_19618)">
<path d="M0 0H24V24H0V0Z" fill="#F0F3FA"/>
<path fill-rule="evenodd" clip-rule="evenodd" d="M12 20.1426C13.8186 20.1426 15.5627 19.4202 16.8487 18.1342C18.1347 16.8483 18.8571 15.1041 18.8571 13.2855C18.8571 9.49693 12.8571 3.85693 12 3.85693C11.1428 3.85693 5.14282 9.49693 5.14282 13.2855C5.14282 15.1041 5.86527 16.8483 7.15123 18.1342C8.4372 19.4202 10.1813 20.1426 12 20.1426ZM8.57139 11.9998V14.9998H10.7143V17.1426H13.2857V14.9998H15.4285V11.9998H8.57139Z" fill="url(#paint0_linear_31_19618)"/>
</g>
<defs>
<linearGradient id="paint0_linear_31_19618" x1="12" y1="3.85693" x2="12" y2="20.1426" gradientUnits="userSpaceOnUse">
<stop stop-color="#00F2FF"/>
<stop offset="1" stop-color="#00BCF3"/>
</linearGradient>
<clipPath id="clip0_31_19618">
<rect width="24" height="24" fill="white"/>
</clipPath>
</defs>
</svg>

<svg xmlns="http://www.w3.org/2000/svg" width="24" height="24" fill="none" viewBox="0 0 24 24"><g clip-path="url(#a)"><path fill="#F0F3FA" d="M0 0h24v24H0z"/><path fill="url(#b)" fill-rule="evenodd" d="M12 20.143a6.857 6.857 0 0 0 6.857-6.857c0-3.79-6-9.43-6.857-9.43s-6.857 5.64-6.857 9.43A6.857 6.857 0 0 0 12 20.143M8.571 12v3h2.143v2.143h2.572V15h2.143v-3z" clip-rule="evenodd"/></g><defs><linearGradient id="b" x1="12" x2="12" y1="3.857" y2="20.143" gradientUnits="userSpaceOnUse"><stop stop-color="#00F2FF"/><stop offset="1" stop-color="#00BCF3"/></linearGradient><clipPath id="a"><path fill="#fff" d="M0 0h24v24H0z"/></clipPath></defs></svg>
